icons/linear-ele-arrow-down.svg

<svg xmlns="http://www.w3.org/2000/svg" width="32px" height="32px" viewBox="0 0 32 32" version="1.1">
    <title>linear-ele-arrow-down</title>
    <g id="linear-ele-arrow-down" stroke-width="1" fill-rule="evenodd">
        <path d="M16,4.5 C16.5522847,4.5 17,4.94771525 17,5.5 L17,24.085 L24.2928932,16.7928932 C24.6533772,16.4324093 25.2206082,16.4046797 25.6128994,16.7097046 L25.7071068,16.7928932 C26.0976311,17.1834175 26.0976311,17.8165825 25.7071068,18.2071068 L16.7071068,27.2071068 C16.3165825,27.5976311 15.6834175,27.5976311 15.2928932,27.2071068 L6.29289322,18.2071068 C5.90236893,17.8165825 5.90236893,17.1834175 6.29289322,16.7928932 C6.68341751,16.4023689 7.31658249,16.4023689 7.70710678,16.7928932 L15,24.085 L15,5.5 C15,4.94771525 15.4477153,4.5 16,4.5 Z" id="&#36335;&#24452;" fill-rule="nonzero" />
    </g>
</svg>

<svg xmlns="http://www.w3.org/2000/svg" viewBox="0 0 32 32"><path fill="currentColor" d="M16 4.5a1 1 0 0 1 1 1v18.585l7.293-7.292a1 1 0 0 1 1.32-.083l.094.083a1 1 0 0 1 0 1.414l-9 9a1 1 0 0 1-1.414 0l-9-9a1 1 0 0 1 1.414-1.414L15 24.085V5.5a1 1 0 0 1 1-1"/></svg>
